X:52
T:My Mind Will Never Be Easy
R:slip jig
D:Michael McGoldrick: Morning Rory
D:Dervish: Playing with Fire
Z:id:hn-slipjig-52
M:9/8
K:G
gf|:edB BAB G2A|Bdd deB dgf|edB BAB G2A|1 Bde efd egf:|2 Bde efd edB||
|:def g2g fed|Bdd deB d2B|1 def g2g fed|Bde efd edB:|2 deg age dBA|Bee efd e||
